flaticon/symbols/spirit.svg

<svg xmlns="http://www.w3.org/2000/svg" width="32" height="32" viewBox="0 0 24 24">
    <path d="M 8.398438 5.179688 C 4.652344 5.179688 1.601562 8.230469 1.601562 11.980469 C 1.601562 15.730469 4.652344 18.78125 8.398438 18.78125 C 12.148438 18.78125 15.199219 15.730469 15.199219 11.980469 C 15.199219 8.230469 12.148438 5.179688 8.398438 5.179688 Z M 8.398438 17.980469 C 5.089844 17.980469 2.398438 15.289062 2.398438 11.980469 C 2.398438 8.671875 5.089844 5.980469 8.398438 5.980469 C 11.707031 5.980469 14.402344 8.671875 14.402344 11.980469 C 14.402344 15.289062 11.710938 17.980469 8.398438 17.980469 Z M 8.398438 17.980469"/>
    <path d="M 23.652344 11.132812 L 22.296875 9.773438 C 21.953125 9.425781 21.445312 9.300781 21.007812 9.457031 C 20.628906 9.589844 20.363281 9.886719 20.277344 10.269531 C 20.238281 10.433594 20.234375 10.605469 20.265625 10.773438 L 16.753906 10.773438 C 16.160156 6.679688 12.578125 3.582031 8.398438 3.582031 C 8.328125 3.582031 8.257812 3.582031 8.1875 3.582031 C 6.503906 3.625 4.890625 4.179688 3.503906 5.183594 C 3.152344 4.925781 2.621094 4.375 2.828125 3.476562 C 2.949219 2.941406 2.726562 2.386719 2.273438 2.101562 L 2.21875 2.074219 C 1.867188 1.925781 1.476562 1.941406 1.136719 2.117188 C 0.808594 2.289062 0.578125 2.59375 0.5 2.957031 C 0.34375 3.707031 0.175781 5.523438 1.757812 6.871094 C 0.707031 8.222656 0.105469 9.824219 0.0117188 11.519531 C -0.0976562 13.542969 0.519531 15.511719 1.746094 17.101562 C 0.140625 18.476562 0.34375 20.332031 0.523438 21.097656 C 0.605469 21.457031 0.84375 21.753906 1.175781 21.914062 C 1.339844 21.988281 1.511719 22.027344 1.6875 22.027344 C 1.867188 22.027344 2.050781 21.984375 2.21875 21.898438 C 2.722656 21.648438 2.976562 21.082031 2.835938 20.527344 C 2.609375 19.625 3.109375 19.070312 3.488281 18.792969 C 4.925781 19.832031 6.617188 20.382812 8.402344 20.382812 C 12.5625 20.382812 16.164062 17.242188 16.753906 13.171875 L 20.265625 13.171875 C 20.195312 13.550781 20.296875 13.953125 20.570312 14.226562 C 21.019531 14.679688 21.804688 14.679688 22.253906 14.226562 L 23.652344 12.824219 C 24.117188 12.359375 24.117188 11.601562 23.652344 11.132812 Z M 23.085938 12.257812 L 21.6875 13.664062 C 21.613281 13.738281 21.515625 13.777344 21.414062 13.777344 C 21.308594 13.777344 21.210938 13.738281 21.136719 13.664062 C 20.996094 13.523438 21.019531 13.222656 21.1875 13.054688 L 21.863281 12.375 L 16.039062 12.375 L 16.003906 12.734375 C 15.621094 16.574219 12.28125 19.582031 8.398438 19.582031 C 6.699219 19.582031 5.09375 19.03125 3.75 17.988281 L 3.539062 17.824219 L 3.304688 17.957031 C 2.488281 18.421875 1.730469 19.394531 2.058594 20.722656 C 2.109375 20.910156 2.027344 21.101562 1.859375 21.183594 C 1.753906 21.238281 1.625 21.242188 1.519531 21.1875 C 1.40625 21.136719 1.328125 21.039062 1.300781 20.917969 C 1.113281 20.101562 1.027344 18.566406 2.546875 17.496094 L 2.902344 17.242188 L 2.617188 16.90625 C 1.347656 15.417969 0.707031 13.519531 0.8125 11.5625 C 0.902344 9.90625 1.53125 8.347656 2.632812 7.066406 L 2.917969 6.730469 L 2.554688 6.476562 C 1.058594 5.429688 1.117188 3.921875 1.285156 3.121094 C 1.320312 2.949219 1.441406 2.863281 1.507812 2.828125 C 1.574219 2.789062 1.648438 2.773438 1.722656 2.773438 C 1.773438 2.773438 1.824219 2.78125 1.875 2.800781 C 2.023438 2.90625 2.089844 3.101562 2.046875 3.300781 C 1.746094 4.613281 2.511719 5.566406 3.332031 6.019531 L 3.5625 6.148438 L 3.769531 5.988281 C 5.066406 4.976562 6.601562 4.425781 8.207031 4.382812 C 12.164062 4.285156 15.605469 7.285156 16.003906 11.214844 L 16.039062 11.574219 L 21.863281 11.574219 L 21.1875 10.890625 C 21.074219 10.777344 21.019531 10.597656 21.054688 10.449219 C 21.082031 10.332031 21.152344 10.253906 21.273438 10.210938 C 21.417969 10.160156 21.605469 10.207031 21.730469 10.335938 L 23.085938 11.699219 C 23.238281 11.851562 23.238281 12.105469 23.085938 12.257812 Z M 23.085938 12.257812"/>
</svg>

<svg xmlns="http://www.w3.org/2000/svg" width="32" height="32" viewBox="0 0 24 24">
    <path d="M8.398 5.18c-3.746 0-6.796 3.05-6.796 6.8s3.05 6.801 6.796 6.801c3.75 0 6.801-3.05 6.801-6.8S12.15 5.18 8.4 5.18zm0 12.8c-3.308 0-6-2.69-6-6 0-3.308 2.692-6 6-6 3.309 0 6.004 2.692 6.004 6 0 3.31-2.691 6-6.004 6zm0 0"/>
    <path d="M23.652 11.133l-1.355-1.36c-.344-.347-.852-.472-1.29-.316-.378.133-.644.43-.73.813-.039.164-.043.335-.011.503h-3.512c-.594-4.093-4.176-7.191-8.356-7.191h-.21a8.312 8.312 0 0 0-4.684 1.602c-.352-.258-.883-.809-.676-1.707a1.288 1.288 0 0 0-.555-1.375l-.054-.028a1.266 1.266 0 0 0-1.082.043 1.235 1.235 0 0 0-.637.84c-.156.75-.324 2.566 1.258 3.914A8.274 8.274 0 0 0 .012 11.52a8.373 8.373 0 0 0 1.734 5.582C.141 18.477.344 20.332.523 21.098c.082.359.32.656.653.816.164.074.336.113.512.113.18 0 .363-.043.53-.129a1.19 1.19 0 0 0 .618-1.37c-.227-.903.273-1.458.652-1.735a8.321 8.321 0 0 0 4.914 1.59c4.16 0 7.762-3.14 8.352-7.211h3.512c-.07.379.03.781.304 1.055.45.453 1.235.453 1.684 0l1.398-1.403a1.2 1.2 0 0 0 0-1.691zm-.566 1.125l-1.398 1.406a.384.384 0 0 1-.274.113.387.387 0 0 1-.277-.113c-.14-.14-.117-.441.05-.61l.676-.679H16.04l-.035.36c-.383 3.84-3.723 6.847-7.606 6.847-1.699 0-3.304-.55-4.648-1.594l-.21-.164-.235.133c-.817.465-1.575 1.438-1.246 2.766a.392.392 0 0 1-.2.46.373.373 0 0 1-.34.005.383.383 0 0 1-.218-.27c-.188-.816-.274-2.352 1.246-3.422l.355-.254-.285-.336a7.572 7.572 0 0 1-1.804-5.343 7.474 7.474 0 0 1 1.82-4.497l.285-.336-.363-.253C1.059 5.43 1.117 3.922 1.285 3.12a.427.427 0 0 1 .223-.293.42.42 0 0 1 .215-.055c.05 0 .101.008.152.028a.48.48 0 0 1 .172.5c-.3 1.312.465 2.265 1.285 2.719l.23.128.208-.16a7.497 7.497 0 0 1 4.437-1.605c3.957-.098 7.398 2.902 7.797 6.832l.035.36h5.824l-.675-.684a.494.494 0 0 1-.133-.442.315.315 0 0 1 .218-.238.452.452 0 0 1 .457.125l1.356 1.363a.398.398 0 0 1 0 .559zm0 0"/>
</svg>
